markup/sourceimages/icon17.svg

<svg xmlns="http://www.w3.org/2000/svg" width="57" height="57"><path fill-rule="evenodd" fill="#5393DD" d="M55.1 3.804v-1.9h-1.9v1.9h-1.9v-1.9h1.9v-1.9h1.9v1.9H57v1.9h-1.9zm0 1.9h-1.9v-1.9h1.9v1.9zm-3.8 17.098h-1.9v-1.9h1.9v1.9zm-1.9 1.899h-1.9v-1.899h1.9v1.899zm-3.8-1.899v-1.9h1.9v1.9h-1.9zm1.9-3.8h1.9v1.9h-1.9v-1.9zm0-17.098h1.9v1.9h-1.9v-1.9zm.95 40.845a2.843 2.843 0 0 1 .96 5.522 3.75 3.75 0 0 1-2.323 6.202l-18.458 2.516a1.005 1.005 0 0 1-.257 0L9.914 54.473a3.749 3.749 0 0 1-2.323-6.202 2.843 2.843 0 0 1 .959-5.522h2.298l3.402-5.952V26.601a3.8 3.8 0 0 1 3.8-3.799V10.453h.007c0-.012-.007-.024-.007-.036C18.24 5.369 21.968.004 28.5.004c.233-.008.465-.008.698 0 5.579.193 9.945 4.871 9.752 10.449v12.349a3.8 3.8 0 0 1 3.8 3.799v10.196l3.402 5.952h2.298zm-1.62 9.84a1.88 1.88 0 0 0 1.602-2.119 1.874 1.874 0 0 0-2.116-1.596l-6.755.921-8.333 1.14 4.967 3.104 10.635-1.45zm-27.41-4.434l9.08 1.235 9.08-1.239-3.817-4.452H23.237l-3.817 4.456zm2.343-5.651l-.38-1.509-5.952 6.613 1.753.238 4.579-5.342zm18.058 5.342l1.756-.238-5.952-6.613-.38 1.509 4.576 5.342zm-29.65 4.743l18.329 2.5 4.753-.649-5.085-3.178-10.735-1.464-6.756-.921a1.872 1.872 0 0 0-.506 3.712zm7.171-27.751a1.9 1.9 0 0 0-1.192 1.763V37.05a.955.955 0 0 1-.125.475l-3.8 6.649a.951.951 0 0 1-.825.475H8.55a.95.95 0 1 0 0 1.9h5.277l6.999-7.776-1.741-6.967-1.743-6.968zM30.4 23.751v-4.068a7.3 7.3 0 0 1-1.9.269 7.393 7.393 0 0 1-1.9-.263v4.062a.95.95 0 0 1-.95.95h-1.9v1.215L28.5 27.5l4.75-1.584v-1.215h-1.9a.95.95 0 0 1-.95-.95zm5.164-11.398h-.414a6.662 6.662 0 0 1-6.372-4.763 17.205 17.205 0 0 1-7.695 3.546c.785 3.719 4.118 6.916 7.417 6.916 2.865 0 5.877-2.512 7.064-5.699zM24.7 22.802v-3.875a11.18 11.18 0 0 1-4.75-5.198v9.073h4.75zM37.05 9.695a8.18 8.18 0 0 0-8.55-7.791 8.525 8.525 0 0 0-8.444 7.488 15.33 15.33 0 0 0 8.723-4.36.948.948 0 0 1 1.621.672 4.755 4.755 0 0 0 4.75 4.749h1.9a7.985 7.985 0 0 0 0-.758zm0 4.031a11.263 11.263 0 0 1-4.75 5.195v3.881h4.75v-9.076zm-1.9 10.975v1.9a.95.95 0 0 1-.649.902l-5.7 1.899a.937.937 0 0 1-.601 0l-5.7-1.899v-.001a.95.95 0 0 1-.65-.901v-1.9h-2.583l4.275 17.098h9.916l4.275-17.098H35.15zm9.626 19.473l-3.8-6.649a.956.956 0 0 1-.126-.475V26.601a1.899 1.899 0 0 0-1.193-1.764l-1.742 6.968-1.742 6.967 7 7.777h5.277a.95.95 0 0 0 0-1.9H45.6a.95.95 0 0 1-.824-.475zM13.301.004h1.9v1.9h-1.9v-1.9zm-4.75 21.848v-1.9h1.9v1.9h-1.9zm1.9-3.8h1.9v1.9h-1.9v-1.9zm-1.9-1.9h1.9v1.9h-1.9v-1.9zm-1.902 1.9h1.9v1.9h-1.9v-1.9zM3.799 5.704h1.9v1.899h-1.9V5.704zM1.9 7.603h1.899v1.9h-1.9v-1.9H0V5.704h1.899v-1.9h1.9v1.9H1.9v1.899zm2.849 12.349h-1.9v-1.9h1.9v1.9z"/></svg>

<svg 
 xmlns="http://www.w3.org/2000/svg"
 xmlns:xlink="http://www.w3.org/1999/xlink"
 width="57px" height="57px">
<path fill-rule="evenodd"  fill="rgb(83, 147, 221)"
 d="M55.100,3.804 L55.100,1.904 L53.200,1.904 L53.200,3.804 L51.300,3.804 L51.300,1.904 L53.200,1.904 L53.200,0.004 L55.100,0.004 L55.100,1.904 L57.000,1.904 L57.000,3.804 L55.100,3.804 ZM55.100,5.704 L53.200,5.704 L53.200,3.804 L55.100,3.804 L55.100,5.704 ZM51.300,22.802 L49.400,22.802 L49.400,20.902 L51.300,20.902 L51.300,22.802 ZM49.400,24.701 L47.500,24.701 L47.500,22.802 L49.400,22.802 L49.400,24.701 ZM45.600,22.802 L45.600,20.902 L47.500,20.902 L47.500,22.802 L45.600,22.802 ZM47.500,19.002 L49.400,19.002 L49.400,20.902 L47.500,20.902 L47.500,19.002 ZM47.500,1.904 L49.400,1.904 L49.400,3.804 L47.500,3.804 L47.500,1.904 ZM48.450,42.749 C49.656,42.746 50.732,43.504 51.136,44.640 C51.662,46.119 50.890,47.745 49.410,48.271 C49.906,48.831 50.223,49.527 50.320,50.269 C50.588,52.322 49.141,54.204 47.087,54.473 L28.629,56.989 C28.544,57.000 28.457,57.000 28.372,56.989 L9.914,54.473 C9.172,54.376 8.476,54.059 7.915,53.563 C6.364,52.191 6.219,49.822 7.591,48.271 C6.456,47.867 5.698,46.791 5.701,45.586 C5.704,44.016 6.980,42.746 8.550,42.749 L10.848,42.749 L14.250,36.797 L14.250,26.601 C14.250,24.503 15.951,22.802 18.050,22.802 L18.050,10.453 L18.057,10.453 C18.057,10.441 18.050,10.429 18.050,10.417 C18.240,5.369 21.968,0.004 28.500,0.004 C28.733,-0.004 28.965,-0.004 29.198,0.004 C34.777,0.197 39.143,4.875 38.950,10.453 L38.950,22.802 C41.049,22.802 42.750,24.503 42.750,26.601 L42.750,36.797 L46.152,42.749 L48.450,42.749 ZM46.830,52.589 C47.756,52.460 48.447,51.669 48.450,50.733 C48.451,50.645 48.444,50.557 48.432,50.470 C48.288,49.445 47.341,48.730 46.316,48.874 L39.561,49.795 L31.228,50.935 L36.195,54.039 L46.830,52.589 ZM19.420,48.155 L28.500,49.390 L37.580,48.151 L33.763,43.699 L23.237,43.699 L19.420,48.155 ZM21.763,42.504 L21.383,40.995 L15.431,47.608 L17.184,47.846 L21.763,42.504 ZM39.821,47.846 L41.577,47.608 L35.625,40.995 L35.245,42.504 L39.821,47.846 ZM10.171,52.589 L28.500,55.089 L33.253,54.440 L28.168,51.262 L17.433,49.798 L10.677,48.877 C10.593,48.865 10.509,48.859 10.424,48.859 C9.481,48.855 8.682,49.552 8.559,50.487 C8.423,51.512 9.145,52.454 10.171,52.589 ZM17.342,24.838 C16.622,25.127 16.150,25.825 16.150,26.601 L16.150,37.050 C16.151,37.216 16.107,37.380 16.025,37.525 L12.225,44.174 C12.055,44.468 11.740,44.650 11.400,44.649 L8.550,44.649 C8.025,44.649 7.600,45.074 7.600,45.599 C7.600,46.123 8.025,46.549 8.550,46.549 L13.827,46.549 L20.826,38.773 L19.085,31.806 L17.342,24.838 ZM30.400,23.751 L30.400,19.683 C29.782,19.856 29.143,19.946 28.500,19.952 C27.858,19.947 27.219,19.859 26.600,19.689 L26.600,23.751 C26.600,24.276 26.175,24.701 25.650,24.701 L23.750,24.701 L23.750,25.916 L28.500,27.500 L33.250,25.916 L33.250,24.701 L31.350,24.701 C30.826,24.701 30.400,24.276 30.400,23.751 ZM35.564,12.353 L35.150,12.353 C32.207,12.347 29.617,10.411 28.778,7.590 C26.549,9.395 23.903,10.614 21.083,11.136 C21.868,14.855 25.201,18.052 28.500,18.052 C31.365,18.052 34.377,15.540 35.564,12.353 ZM24.700,22.802 L24.700,18.927 C22.598,17.751 20.932,15.928 19.950,13.729 L19.950,22.802 L24.700,22.802 ZM37.050,9.695 C36.841,5.183 33.013,1.695 28.500,1.904 C24.199,1.913 20.579,5.124 20.056,9.392 C23.361,8.927 26.423,7.396 28.779,5.032 C28.957,4.854 29.198,4.754 29.450,4.754 C29.975,4.754 30.400,5.179 30.400,5.704 C30.403,8.325 32.528,10.450 35.150,10.453 L37.050,10.453 C37.062,10.200 37.062,9.947 37.050,9.695 ZM37.050,13.726 C36.062,15.921 34.398,17.741 32.300,18.921 L32.300,22.802 L34.200,22.802 L37.050,22.802 L37.050,13.726 ZM35.150,24.701 L35.150,26.601 C35.151,27.010 34.889,27.373 34.501,27.503 L28.801,29.402 C28.606,29.468 28.395,29.468 28.200,29.402 L22.500,27.503 L22.500,27.502 C22.112,27.372 21.850,27.010 21.850,26.601 L21.850,24.701 L19.267,24.701 L23.542,41.799 L33.458,41.799 L37.733,24.701 L35.150,24.701 ZM44.776,44.174 L40.976,37.525 C40.893,37.380 40.850,37.216 40.850,37.050 L40.850,26.601 C40.851,25.825 40.378,25.126 39.657,24.837 L37.915,31.805 L36.173,38.772 L43.173,46.549 L48.450,46.549 C48.975,46.549 49.400,46.123 49.400,45.599 C49.400,45.074 48.975,44.649 48.450,44.649 L45.600,44.649 C45.260,44.650 44.946,44.468 44.776,44.174 ZM13.301,0.004 L15.201,0.004 L15.201,1.904 L13.301,1.904 L13.301,0.004 ZM8.551,21.852 L8.551,19.952 L10.451,19.952 L10.451,21.852 L8.551,21.852 ZM10.451,18.052 L12.351,18.052 L12.351,19.952 L10.451,19.952 L10.451,18.052 ZM8.551,16.152 L10.451,16.152 L10.451,18.052 L8.551,18.052 L8.551,16.152 ZM6.649,18.052 L8.549,18.052 L8.549,19.952 L6.649,19.952 L6.649,18.052 ZM3.799,5.704 L5.699,5.704 L5.699,7.603 L3.799,7.603 L3.799,5.704 ZM1.900,7.603 L3.799,7.603 L3.799,9.503 L1.899,9.503 L1.899,7.603 L-0.000,7.603 L-0.000,5.704 L1.899,5.704 L1.899,3.804 L3.799,3.804 L3.799,5.704 L1.900,5.704 L1.900,7.603 ZM4.749,19.952 L2.849,19.952 L2.849,18.052 L4.749,18.052 L4.749,19.952 Z"/>
</svg>
